com-5/img/icons/list.svg

<svg xmlns="http://www.w3.org/2000/svg" viewBox="0 0 48 64" height="64" width="48"><defs><clipPath id="a"><path d="M0 48h36V0H0z"/></clipPath></defs><g clip-path="url(#a)" transform="matrix(1.33333 0 0 -1.33333 0 64)" fill="#24abe2"><path d="M8 39h20v4h-6.525c-.751 0-1.393.547-1.493 1.273A2.006 2.006 0 0 1 18 46a2.003 2.003 0 0 1-1.98-1.726c-.101-.727-.743-1.274-1.494-1.274H8zm22-2H6v6c0 1.103.897 2 2 2h6.127c.449 1.739 2.04 3 3.873 3a4.017 4.017 0 0 0 3.874-3H28c1.103 0 2-.897 2-2z"/><path d="M36 0H0v42h7v-2H2V2h32v38h-4.999v2H36z"/><path d="M5 33h4v-2H5zm8 0h18v-2H13zm-8-6h4v-2H5zm8 0h18v-2H13zm-8-6h4v-2H5zm8 0h18v-2H13zm-8-6h4v-2H5zm8 0h18v-2H13zM5 9h4V7H5zm8 0h18V7H13z"/></g></svg>

<?xml version="1.0" encoding="UTF-8" standalone="no"?>
<svg
   xmlns:dc="http://purl.org/dc/elements/1.1/"
   xmlns:cc="http://creativecommons.org/ns#"
   xmlns:rdf="http://www.w3.org/1999/02/22-rdf-syntax-ns#"
   xmlns:svg="http://www.w3.org/2000/svg"
   xmlns="http://www.w3.org/2000/svg"
   viewBox="0 0 48 64"
   height="64"
   width="48"
   xml:space="preserve"
   id="svg2"
   version="1.1"><metadata
     id="metadata8"><rdf:RDF><cc:Work
         rdf:about=""><dc:format>image/svg+xml</dc:format><dc:type
           rdf:resource="http://purl.org/dc/dcmitype/StillImage" /><dc:title></dc:title></cc:Work></rdf:RDF></metadata><defs
     id="defs6"><clipPath
       id="clipPath18"
       clipPathUnits="userSpaceOnUse"><path
         id="path16"
         d="M 0,48 H 36 V 0 H 0 Z" /></clipPath></defs><g
     transform="matrix(1.3333333,0,0,-1.3333333,0,64)"
     id="g10"><g
       id="g12"><g
         clip-path="url(#clipPath18)"
         id="g14"><g
           transform="translate(8,39)"
           id="g20"><path
             id="path22"
             style="fill:#24abe2;fill-opacity:1;fill-rule:nonzero;stroke:none"
             d="M 0,0 H 20 V 4 H 13.475 C 12.724,4 12.082,4.547 11.982,5.273 11.848,6.258 10.995,7 10,7 9.005,7 8.153,6.258 8.02,5.274 7.919,4.547 7.277,4 6.526,4 H 0 Z M 22,-2 H -2 v 6 c 0,1.103 0.897,2 2,2 H 6.127 C 6.576,7.739 8.167,9 10,9 11.834,9 13.425,7.739 13.874,6 H 20 c 1.103,0 2,-0.897 2,-2 z" /></g><g
           transform="translate(36)"
           id="g24"><path
             id="path26"
             style="fill:#24abe2;fill-opacity:1;fill-rule:nonzero;stroke:none"
             d="m 0,0 h -36 v 42 h 7 v -2 h -5 V 2 h 32 v 38 h -4.999 v 2 H 0 Z" /></g><path
           id="path28"
           style="fill:#24abe2;fill-opacity:1;fill-rule:nonzero;stroke:none"
           d="M 5,33 H 9 V 31 H 5 Z" /><path
           id="path30"
           style="fill:#24abe2;fill-opacity:1;fill-rule:nonzero;stroke:none"
           d="M 13,33 H 31 V 31 H 13 Z" /><path
           id="path32"
           style="fill:#24abe2;fill-opacity:1;fill-rule:nonzero;stroke:none"
           d="M 5,27 H 9 V 25 H 5 Z" /><path
           id="path34"
           style="fill:#24abe2;fill-opacity:1;fill-rule:nonzero;stroke:none"
           d="M 13,27 H 31 V 25 H 13 Z" /><path
           id="path36"
           style="fill:#24abe2;fill-opacity:1;fill-rule:nonzero;stroke:none"
           d="M 5,21 H 9 V 19 H 5 Z" /><path
           id="path38"
           style="fill:#24abe2;fill-opacity:1;fill-rule:nonzero;stroke:none"
           d="M 13,21 H 31 V 19 H 13 Z" /><path
           id="path40"
           style="fill:#24abe2;fill-opacity:1;fill-rule:nonzero;stroke:none"
           d="M 5,15 H 9 V 13 H 5 Z" /><path
           id="path42"
           style="fill:#24abe2;fill-opacity:1;fill-rule:nonzero;stroke:none"
           d="M 13,15 H 31 V 13 H 13 Z" /><path
           id="path44"
           style="fill:#24abe2;fill-opacity:1;fill-rule:nonzero;stroke:none"
           d="M 5,9 H 9 V 7 H 5 Z" /><path
           id="path46"
           style="fill:#24abe2;fill-opacity:1;fill-rule:nonzero;stroke:none"
           d="M 13,9 H 31 V 7 H 13 Z" /></g></g></g></svg>
